!!!!SEGMENT: pl-kk--kk-i-6--034_lilius-franciszek--gloriosa-dicta-sun.krn
!!!cenid: 16xx:1009
!!!COM: Lilius, Franciszek
!!!COM-rismID: pe30020509
!!!CDT: ~1600-1657
!!!CNT: Polish
!!!OTL: Gloriosa dicta sun
!!!PDT:
!!!AGN: Sacred
!!!SMS-siglum: PL-Kk
!!!SMS-shelfmark: Kk.I.6
!!!SMS-shelfwork: 034 W
!!!SMS-variant:
!!!SMS-altvar:
!!!NIFC-rismSourceID: 1001136217
!!!NIFC-islandoraID: pl-kk:1634
!!!URL-pdf-islandora: https://repozytorium.nifc.pl/islandora/object/pl-kk%3A1634/datastream/PDF/view
!!!URL-scan: https://polish.musicsources.pl/pl/lokalizacje/galeria/rekopisy/6133 @EN{Scan on Polish Music Herritage in Open Access Website} @PL{Skany w portalu Dziedzictwo Muzyki Polskiej w otwartym dostępie}
!!!ONB-nifc: UWAGA: C (skan 0045, s. 86-87), T (skan 0152-0153, s. 108-110), B (skan 0262-0263, s. 107-108) Następny utwór: O salutaris hostia
!!!AIN: 1 empty 1 tenor 1 vox
!!!key:
**kern	**text	**kern	**text	**kern	**text
*part3	*part3	*part2	*part2	*part1	*part1
*staff3	*staff3	*staff2	*staff2	*staff1	*staff1
*group1	*	*group1	*	*group1	*
*Iempty	*	*Itenor	*	*Ivox	*
*I"Baſsus.	*	*I"Tenor.	*	*I"Cantus.	*
*I'B	*	*I'T	*	*I'S	*
*clefF4	*	*clefC4	*	*clefC4	*
*k[]	*	*k[]	*	*k[]	*
*F:	*	*F:	*	*F:	*
*M3/1	*	*M3/1	*	*M3/1	*
*	*	*	*	*met(c)	*
=1-	=1-	=1-	=1-	=1-	=1-
!	!	!	!	!LO:N:vis=0	!
!LO:TX:a:t=Communio.	!	!LO:TX:a:t=Communio.	!	!LO:TX:a:t=Communio.	!
0.r	.	0c	Glo-	00.r	.
!	!	!LO:TX:t=P:problem=kreska pseudotaktowa	!	!	!
.	.	1A	-ri-	.	.
=2-	=2-	=2-	=2-	=2-	=2-
0F	Glo-	1c	-o-	.	.
.	.	1c	-sa	.	.
!	!	!LO:TX:t=P::problem=kreska pseudotaktowa&colon;między nutą a kropką	!	!	!
1D	-ri-	1d.	di-	.	.
=3-	=3-	=3-	=3-	=3-	=3-
!	!	!	!	!LO:N:vis=1	!
1F	-o-	.	.	0.r	.
.	.	2c\	.	.	.
1G	-sa	1B	.	.	.
!	!	!LO:TX:t=P::problem=kreska pseudotaktowa&colon;między nutą a kropką	!	!	!
1A.	di-	1c.	.	.	.
=4-	=4-	=4-	=4-	=4-	=4-
!	!	!	!	!LO:N:vis=1	!
.	.	.	.	0.c	Glo-
2G\	.	2B\	.	.	.
1E	.	1G	.	.	.
*	*	*custos:c	*	*	*
[1F	.	1F	.	.	.
!	!	!LO:LB:g=original	!	!	!
=5-	=5-	=5-	=5-	=5-	=5-
!	!	!	!	!LO:N:vis=1	!
2F\]	.	1c	.	0.A	-ri-
2E\	.	.	.	.	.
1D	.	1.d	.	.	.
1D	-cta	.	.	.	.
!	!	!LO:TX:t=P:problem=kreska pseudotaktowa	!	!	!
.	.	2d\	-cta	.	.
=6-	=6-	=6-	=6-	=6-	=6-
!LO:TX:t=P:problem=cezura na 1. linii	!	!	!	!LO:N:vis=1	!
1C,<	ſunt	0G	Sunt	(<0.c	-o-
1C	glo-	.	.	.	.
*custos:B	*	*	*	*	*
1AA	-ri-	1rA	.	.	.
!LO:LB:g=original	!	!	!	!	!
=7-	=7-	=7-	=7-	=7-	=7-
!	!	!	!	!LO:N:vis=1	!
0BB	-o-	1rA	.	0.d)	.
*	*	*col	*	*	*
.	.	0G	glo-	.	.
1GG	-sa	.	.	.	.
=8-	=8-	=8-	=8-	=8-	=8-
*col	*	*	*	*	*
!	!	!	!	!LO:N:vis=1	!
1C	di-	1E	-ri-	0.c	-Sa
1C	-cta	1G	-o-	.	.
0F	glo-	1A.	.	.	.
=9-	=9-	=9-	=9-	=9-	=9-
!	!	!	!	!LO:N:vis=1	!
.	.	.	.	0.d	di-
.	.	2G/	.	.	.
1D	-ri-	1F	.	.	.
!	!	!LO:TX:t=P:problem=przekreślona synkopowana wartość	!	!	!
1F.	-o-	0A	-Sa	.	.
*	*	*Xcol	*	*	*
=10-	=10-	=10-	=10-	=10-	=10-
*	*	*	*	*lig	*
!	!	!	!	!LO:N:vis=1	!
.	.	.	.	0.d	-cta
2F\	-sa	.	.	.	.
1.G	di-	1.B	di-	.	.
!	!	!LO:TX:t=P:problem=kreska pseudotaktowa	!	!	!
2F\	.	2A/	.	.	.
*Xcol	*	*	*	*	*
=11-	=11-	=11-	=11-	=11-	=11-
*	*	*	*	*custos:c	*
!	!	!	!	!LO:N:vis=1	!
1E	.	1B	.	0.e	.
1.c	.	1.c	.	.	.
*	*	*custos:e	*	*	*
2B\	.	2d\	.	.	.
*	*	*	*	*Xlig	*
!	!	!LO:LB:g=original	!	!LO:LB:g=original	!
=12-	=12-	=12-	=12-	=12-	=12-
!	!	!	!	!LO:TX:t=P:problem=cezura na 2. linii	!
!	!	!	!	!LO:N:vis=1	!
0A	.	1e	.	0.c,<	ſunt
.	.	1.c	.	.	.
1A	-cta	.	.	.	.
!	!	!LO:TX:t=P:problem=kreska pseudotaktowa	!	!	!
.	.	2c\	-cta	.	.
=13-	=13-	=13-	=13-	=13-	=13-
*	*	*	*	*lig	*
!	!	!	!	!LO:N:vis=1	!
0G	ſunt	0B	ſunt	0.d	de
*custos:C	*	*	*	*	*
1G	de	1B	de	.	.
!LO:LB:g=original	!	!	!	!	!
=14-	=14-	=14-	=14-	=14-	=14-
!	!	!	!	!LO:TX:t=P:problem=cezura na 3. linii	!
!	!	!	!	!LO:N:vis=1	!
0C	te	0c	te	0.e,<	.
1AA	Ma-	1c	Ma-	.	.
*	*	*	*	*Xlig	*
=15-	=15-	=15-	=15-	=15-	=15-
!	!	!	!	!LO:TX:t=P:problem=cezura na 4. linii	!
!	!	!	!	!LO:N:vis=1	!
0.E	-ri-	0.B	-ri-	0.e,<	te
=16-	=16-	=16-	=16-	=16-	=16-
*col	*	*	*	*	*
*	*	*custos:c	*	*	*
!	!	!LO:TX:t=P:problem=fragment wydrapany	!	!	!
!	!	!	!	!LO:N:vis=1	!
0AA	-a	0.A	-a	0.c	Ma-
0A	Qui-	.	.	.	.
!	!	!LO:PB:g=original	!	!	!
=17-	=17-	=17-	=17-	=17-	=17-
*	*	*	*	*lig	*
!	!	!	!	!LO:N:vis=1	!
.	.	0e	Qui-	0.c	-ri-
1E	-a	.	.	.	.
!	!	!LO:TX:t=P:problem=kreska pseudotaktowa	!	!	!
1F.	fe-	1A	-a	.	.
*Xcol	*	*	*	*	*
=18-	=18-	=18-	=18-	=18-	=18-
!	!	!	!	!LO:N:vis=1	!
.	.	1.F	fe-	0.d	.
2E\	-cit	.	.	.	.
2D/	ti-	.	.	.	.
2E\	.	2G/	-cit	.	.
2F\	.	2A/	ti-	.	.
!	!	!LO:TX:t=P:problem=kreska pseudotaktowa	!	!	!
2G\	.	2B\	-bi	.	.
*	*	*	*	*Xlig	*
=19-	=19-	=19-	=19-	=19-	=19-
*	*	*	*	*lig	*
!	!	!	!	!LO:N:vis=1	!
2A\	.	2c\	Ma-	0.c	.
2B\	.	2d\	.	.	.
1c	.	1.e	.	.	.
1A	-bi	.	.	.	.
.	.	4d\	.	.	.
!	!	!LO:TX:t=P:problem=kreska pseudotaktowa	!	!	!
.	.	4c\	.	.	.
=20-	=20-	=20-	=20-	=20-	=20-
*custos:F	*	*	*	*	*
!	!	!	!	!LO:N:vis=1	!
0.G	ma-	0d	.	0.B	.
.	.	1d	-gna	.	.
*	*	*	*	*Xlig	*
!LO:LB:g=original	!	!	!	!	!
=21-	=21-	=21-	=21-	=21-	=21-
*col	*	*	*	*lig	*
!	!	!	!	!LO:N:vis=1	!
1F	-gna	1%3r	.	0.A	.
1r	.	.	.	.	.
1D	Qui-	.	.	.	.
=22-	=22-	=22-	=22-	=22-	=22-
!	!	!	!	!LO:N:vis=1	!
*	*	*	*ij	*	*
1AA	-a	1A	fe-	0.c	.
!LO:TX:t=P:problem=skreślony fragment	!	!	!	!	!
1.C	fe-	1E	-cit	.	.
.	.	2G/	ti-	.	.
*	*	*custos:c	*	*	*
!	!	!LO:TX:t=P:problem=kreska pseudotaktowa	!	!	!
2BB/	-cit	2G/	-bi	.	.
*	*	*	*	*Xlig	*
!	!	!LO:LB:g=original	!	!	!
=23-	=23-	=23-	=23-	=23-	=23-
!	!	!	!	!LO:TX:t=P:problem=cezura na 2. linii	!
!	!	!	!	!LO:N:vis=1	!
1AA	[ti]-	1c	Ma-	0.c,<	-a
1.EE	.	1G	.	.	.
!	!	!LO:TX:t=P:problem=kreska pseudotaktowa	!	!	!
.	.	1G	-gna	.	.
*	*	*	*Xij	*	*
2EE/	-bi	.	.	.	.
=24-	=24-	=24-	=24-	=24-	=24-
!	!	!	!	!LO:N:vis=1	!
1FF	ma-	1r	.	0.c	qui-
*	*	*col	*	*	*
1FF	-gna	0c	qui-	.	.
*	*	*Xcol	*	*	*
0F	qui-	.	.	.	.
=25-	=25-	=25-	=25-	=25-	=25-
!	!	!	!	!LO:N:vis=1	!
.	.	1A	-a	0.d	-a
1D	-a	1.d	fe-	.	.
1G.	fe-	.	.	.	.
.	.	2d\	-cit	.	.
=26-	=26-	=26-	=26-	=26-	=26-
!	!	!	!	!LO:N:vis=1	!
.	.	1B	ti-	(<0.e	fe-
2G\	-cit	.	.	.	.
1A	ti-	2c\	.	.	.
.	.	2d\	.	.	.
*custos:A	*	*	*	*	*
1G	-bi	1e.	.	.	.
!LO:LB:g=original	!	!	!	!	!
=27-	=27-	=27-	=27-	=27-	=27-
!	!	!	!	!LO:N:vis=1	!
1A	ma-	.	.	0.f)	.
.	.	2e\	-bi	.	.
*	*	*col	*	*	*
0B	.	0d	Ma-	.	.
*Xcol	*	*	*	*	*
=28-	=28-	=28-	=28-	=28-	=28-
!	!	!	!	!LO:N:vis=1	!
1c	.	0c	-gna	(<0.e	-cit
2C/	.	.	.	.	.
2D/	.	.	.	.	.
2E\	.	0c	Ma-	.	.
2F\	.	.	.	.	.
=29-	=29-	=29-	=29-	=29-	=29-
*col	*	*	*	*	*
*	*	*	*	*custos:e	*
!	!	!	!	!LO:N:vis=1	!
1G	.	.	.	0.d)	.
0GG	.	0B	.	.	.
*	*	*Xcol	*	*lig	*
!	!	!	!	!LO:LB:g=original	!
=30-	=30-	=30-	=30-	=30-	=30-
*	*	*custos:c	*	*	*
!	!	!	!	!LO:N:vis=1	!
0C	-gna	0.c	-gna	0.e	ti-
0c	qui	.	.	.	.
!	!	!LO:LB:g=original	!	!	!
=31-	=31-	=31-	=31-	=31-	=31-
!	!	!	!	!LO:N:vis=1	!
.	.	1%3r	.	0.d	.
0B	po-	.	.	.	.
*Xcol	*	*	*	*Xlig	*
=32-	=32-	=32-	=32-	=32-	=32-
!	!	!	!	!LO:TX:t=P:problem=cezura na 2. linii	!
!	!	!	!	!LO:N:vis=1	!
0A	.	1r	.	0.c,<	-bi
.	.	1r	.	.	.
*	*	*col	*	*	*
1A	-tens	0c	qui	.	.
=33-	=33-	=33-	=33-	=33-	=33-
*	*	*	*	*lig	*
*custos:GG	*	*	*	*	*
!	!	!	!	!LO:N:vis=1	!
0.G	eſt.	.	.	0.d	Ma-
.	.	0B	po-	.	.
*	*	*Xcol	*	*	*
!LO:PB:g=original	!	!	!	!	!
=34-	=34-	=34-	=34-	=34-	=34-
!	!	!	!	!LO:N:vis=1	!
00.r	.	0A	.	0.e	.
.	.	1A	.	.	.
*	*	*	*	*Xlig	*
=35-	=35-	=35-	=35-	=35-	=35-
*	*	*	*	*lig	*
!	!	!	!	!LO:N:vis=1	!
.	.	1.G	-tens-	0.g	.
.	.	2F/	.	.	.
.	.	2E/	.	.	.
.	.	2F/	.	.	.
=36-	=36-	=36-	=36-	=36-	=36-
!	!	!	!	!LO:N:vis=1	!
0GG	qui-	0.G	-eſt.	0.d	.
1GG	-a	.	.	.	.
*	*	*	*	*Xlig	*
=37-	=37-	=37-	=37-	=37-	=37-
*	*	*	*	*lig	*
!	!	!	!	!LO:N:vis=1	!
0AA	fe-	1%3r	.	0.c	gna
1AA	-cit	.	.	.	.
=38-	=38-	=38-	=38-	=38-	=38-
!	!	!	!	!LO:N:vis=1	!
0BB	ti-	1r	.	0.B	.
.	.	1r	.	.	.
*	*	*col	*	*	*
1BB	-bi	0d	qui	.	.
*	*	*	*	*Xlig	*
=39-	=39-	=39-	=39-	=39-	=39-
*	*	*	*	*lig	*
!	!	!	!	!LO:N:vis=1	!
0.C	ma-	.	.	0.G	.
.	.	1.c	po-	.	.
.	.	2c\	-tens	.	.
*	*	*Xcol	*	*	*
=40-	=40-	=40-	=40-	=40-	=40-
*col	*	*	*	*	*
!	!	!	!	!LO:N:vis=1	!
0GG	-gna	1B	eſt	0.B	.
.	.	1G	qui-	.	.
*	*	*custos:A	*	*	*
0G	qui	1G	-a	.	.
*	*	*	*	*Xlig	*
!	!	!LO:LB:g=original	!	!	!
=41-	=41-	=41-	=41-	=41-	=41-
*	*	*	*	*lig	*
!	!	!	!	!LO:N:vis=1	!
.	.	0A	fe-	0.A	.
0F	po-	.	.	.	.
.	.	1A	-cit	.	.
*Xcol	*	*	*	*	*
=42-	=42-	=42-	=42-	=42-	=42-
!	!	!	!	!LO:N:vis=1	!
0.E	.	0B	ti-	0.G	.
!	!	!LO:TX:b:t=P:problem=♯ below	!	!	!
.	.	1c#X	-bi	.	.
*	*	*	*	*Xlig	*
=43-	=43-	=43-	=43-	=43-	=43-
!	!	!	!	!LO:N:vis=1	!
!	!	!	!	!LO:TX:t=P:problem=cezura na 1. polu	!
0D	.	0.d	ma-	0.A,<	.
1D	-tens	.	.	.	.
=44-	=44-	=44-	=44-	=44-	=44-
!LO:TX:t=P:problem=cezura na 1. linii	!	!	!	!	!
*col	*	*col	*	*lig	*
!	!	!	!	!LO:N:vis=1	!
1C,<	eſt	1G	-gna	0.c	qui
*custos:D	*	*	*	*	*
0F	qui-	1rF	.	.	.
.	.	0cny	qui	.	.
*Xcol	*	*	*	*	*
!LO:LB:g=original	!	!	!	!	!
=45-	=45-	=45-	=45-	=45-	=45-
*	*	*	*	*custos:e	*
!	!	!	!	!LO:N:vis=1	!
1D	-a	.	.	0.d	.
!	!	!LO:TX:t=P:problem=przekreślona synkopowana wartość	!	!	!
1.G	fe-	0B	po-	.	.
2F\	-cit	.	.	.	.
*	*	*Xcol	*	*Xlig	*
!	!	!	!	!LO:PB:g=original	!
=46-	=46-	=46-	=46-	=46-	=46-
*	*	*	*	*lig	*
!	!	!	!	!LO:N:vis=1	!
2E\	ti-	1G	.	0.e	po-
2E\	-bi	.	.	.	.
*col	*	*	*	*	*
0A	Ma-	2A/	.	.	.
!	!	!LO:TX:t=P:problem=kreska pseudotaktowa	!	!	!
.	.	2B\	.	.	.
.	.	2c\	.	.	.
.	.	2A/	.	.	.
=47-	=47-	=47-	=47-	=47-	=47-
!LO:TX:t=P:problem=cezura na 3. linii	!	!	!	!LO:N:vis=1	!
0G,<	-gna	2B\	.	0.g	.
.	.	2A/	.	.	.
!	!	!LO:TX:t=P:problem=kreska pseudotaktowa	!	!	!
.	.	1G	.	.	.
0c	qui	1E	-tens	.	.
*	*	*	*	*Xlig	*
=48-	=48-	=48-	=48-	=48-	=48-
*	*	*	*	*lig	*
*	*	*custos:d	*	*	*
!	!	!	!	!LO:N:vis=1	!
.	.	0.G	eſt	0.d	.
0B	po-	.	.	.	.
*Xcol	*	*	*	*	*
!	!	!LO:LB:g=original	!	!	!
=49-	=49-	=49-	=49-	=49-	=49-
!	!	!	!	!LO:N:vis=1	!
0.A	-tens	1%3r	.	0.c	.
*	*	*	*	*Xlig	*
=50-	=50-	=50-	=50-	=50-	=50-
*col	*	*	*	*lig	*
!	!	!	!	!LO:N:vis=1	!
0G	eſt	1r	.	0.B	.
.	.	1r	.	.	.
*	*	*col	*	*	*
0G	qui	1d	qui	.	.
=51-	=51-	=51-	=51-	=51-	=51-
!	!	!	!	!LO:N:vis=1	!
.	.	0c#X	po-	0.A	.
0F	po-	.	.	.	.
.	.	0d	.	.	.
*Xcol	*	*	*	*Xlig	*
=52-	=52-	=52-	=52-	=52-	=52-
*	*	*	*	*lig	*
!	!	!	!	!LO:N:vis=1	!
0.E	-tens	.	.	0.G	.
.	.	1.c#X	.	.	.
.	.	2c#X\	-tens	.	.
=53-	=53-	=53-	=53-	=53-	=53-
!	!	!	!	!LO:N:vis=1	!
0.D	eſt	1d	eſt	0.A	.
!	!	!LO:TX:t=P:problem=kreska pseudotaktowa	!	!	!
.	.	0A	qui	.	.
*	*	*Xcol	*	*Xlig	*
=54-	=54-	=54-	=54-	=54-	=54-
*	*	*	*	*lig	*
!	!	!	!	!LO:N:vis=1	!
00.r	.	0G	po-	0.B	.
!	!	!LO:TX:t=P:problem=kreska pseudotaktowa	!	!	!
.	.	1F	.	.	.
=55-	=55-	=55-	=55-	=55-	=55-
!	!	!	!	!LO:N:vis=1	!
.	.	0E	.	0.G	.
!	!	!LO:TX:t=P:problem=kreska pseudotaktowa	!	!	!
.	.	1E	-tens	.	.
*	*	*	*	*Xlig	*
=56-	=56-	=56-	=56-	=56-	=56-
*	*	*	*	*lig	*
!	!	!LO:TX:t=P:problem=kreska pseudotaktowa	!	!LO:N:vis=1	!
1rD	.	0.D	eſt	0.A	.
1rD	.	.	.	.	.
*custos:B	*	*	*	*	*
1D	Qui-	.	.	.	.
!LO:LB:g=original	!	!	!	!	!
=57-	=57-	=57-	=57-	=57-	=57-
!	!	!	!	!LO:N:vis=1	!
1BB	-a	1rF	.	0.B	.
1.E	fe-	1rF	.	.	.
*	*	*custos:E	*	*	*
.	.	1G	qui-	.	.
2D/	-cit	.	.	.	.
*	*	*	*	*Xlig	*
!	!	!LO:LB:g=original	!	!	!
=58-	=58-	=58-	=58-	=58-	=58-
*	*	*	*	*lig	*
!	!	!	!	!LO:N:vis=1	!
2C/	ti-	1E	-a	0.c	.
2C/	-bi	.	.	.	.
1.F	Ma-	1.A	fe-	.	.
!	!	!LO:TX:t=P:problem=kreska pseudotaktowa	!	!	!
2E\	.	2G/	-cit	.	.
=59-	=59-	=59-	=59-	=59-	=59-
!	!	!	!	!LO:N:vis=1	!
1D	.	2F/	ti-	0.d	.
.	.	2A/	-bi	.	.
1.G	.	1.B	ma-	.	.
!	!	!LO:TX:t=P:problem=kreska pseudotaktowa	!	!	!
2F\	.	2A/	.	.	.
*	*	*	*	*Xlig	*
=60-	=60-	=60-	=60-	=60-	=60-
*	*	*	*	*lig	*
!	!	!	!	!LO:N:vis=1	!
1E	.	1G	.	0.e	.
1.A	.	1.cny	.	.	.
!	!	!LO:TX:t=P:problem=kreska pseudotaktowa	!	!	!
2G\	.	2B\	.	.	.
=61-	=61-	=61-	=61-	=61-	=61-
!	!	!	!	!LO:N:vis=1	!
1F	.	1A	.	0.f	.
1.B-X	.	2d\	.	.	.
.	.	2c\	.	.	.
.	.	2B-X\	.	.	.
!	!	!LO:TX:t=P:problem=kreska pseudotaktowa	!	!	!
2A\	.	2c\	.	.	.
*	*	*	*	*Xlig	*
=62-	=62-	=62-	=62-	=62-	=62-
*col	*	*	*	*lig	*
!	!	!	!	!LO:N:vis=1	!
1G	.	0d	.	0.e	.
*custos:D	*	*	*	*	*
0A	.	.	.	.	.
*	*	*custos:d	*	*	*
!	!	!LO:TX:b:t=P:problem=# below	!	!	!
.	.	1c#X	.	.	.
!LO:LB:g=original	!	!LO:PB:g=original	!	!	!
=63-	=63-	=63-	=63-	=63-	=63-
*	*	*col	*	*	*
*	*	*	*	*custos:d	*
!LO:TX:t=P:problem=cezura na 3. linii	!	!	!	!	!
!	!	!	!	!LO:N:vis=1	!
0D,<	-gna	0d	-gna	0.d	.
!	!	!LO:N:acc=#	!	!	!
0G	qui	0Bn	qui	.	.
*	*	*	*	*Xlig	*
!	!	!	!	!LO:LB:g=original	!
=64-	=64-	=64-	=64-	=64-	=64-
.	.	.	.	000.dl	-tens
!LO:TX:t=P:problem=# above	!	!	!	!	!
1.F#X	po-	1.A	po-	.	.
!LO:TX:b:t=P:problem=# below	!	!	!	!	!
2F#X\	-tens	2A/	-tens	.	.
*Xcol	*	*Xcol	*	*	*
=65-	=65-	=65-	=65-	=65-	=65-
1G	eſt	0.B	eſt	.	.
2GG/	qui	.	.	.	.
2AA/	.	.	.	.	.
2BB/	.	.	.	.	.
2GG/	.	.	.	.	.
=66-	=66-	=66-	=66-	=66-	=66-
*	*	*col	*	*	*
0D	po-	0A	.	.	.
1D	-tens	0d	qui	.	.
=67-	=67-	=67-	=67-	=67-	=67-
*col	*	*	*	*	*
1GG	eſt	.	.	.	.
0G	qui	1.B	po-	.	.
.	.	2B\	.	.	.
=68-	=68-	=68-	=68-	=68-	=68-
(<1E	po-	1G	.	000.cl	est.
1.Fny)	.	0A	-tens	.	.
2F\	-tens	.	.	.	.
=69-	=69-	=69-	=69-	=69-	=69-
0C	eſt	1G	eſt	.	.
*	*	*	*ij	*	*
.	.	1cny	qui-	.	.
0F	qui	0A	po-	.	.
=70-	=70-	=70-	=70-	=70-	=70-
.	.	.	.	.	.
1.E	po-	1.G	.	.	.
*custos:F	*	*custos:A	*	*	*
2E\	-tens	2G/	-tens	.	.
*Xcol	*	*Xcol	*	*	*
!LO:LB:g=original	!	!LO:LB:g=original	!	!	!
=71-	=71-	=71-	=71-	=71-	=71-
1F	eſt	0A	eſt	.	.
*	*	*	*Xij	*	*
2FF/	qui	.	.	.	.
2GG/	.	.	.	.	.
2AA/	.	1A	.	.	.
2BB-X/	.	.	.	.	.
=72-	=72-	=72-	=72-	=72-	=72-
0C	po-	0G	.	[0.cl;;	.
1C	-tens	1G	.	.	.
=73-	=73-	=73-	=73-	=73-	=73-
1FF	eſt	2F/	.	0.c_	.
.	.	2G/	.	.	.
1F	qui	2A/	.	.	.
.	.	2B\	.	.	.
2C/	po-	1c	.	.	.
2D/	.	.	.	.	.
=74-	=74-	=74-	=74-	=74-	=74-
2E\	.	1G	qui	0.c_	.
2C/	.	.	.	.	.
1F	.	2A/	po-	.	.
.	.	2B\	.	.	.
2E\	.	2c\	.	.	.
2D/	.	2d\	.	.	.
=75-	=75-	=75-	=75-	=75-	=75-
2C/	.	2e\	.	0.c_	.
2BBny/	.	2d\	.	.	.
2AA/	.	2c\	.	.	.
2GG/	.	2B\	.	.	.
*custos:C	*	*	*	*	*
1FF	.	2A/	.	.	.
.	.	4G/	.	.	.
*	*	*custos:G	*	*	*
.	.	4F/	.	.	.
!LO:LB:g=original	!	!LO:LB:g=original	!	!	!
=76-	=76-	=76-	=76-	=76-	=76-
0C	.	0G	.	0.c_	.
1C	-tens	1G	-tens	.	.
=77-	=77-	=77-	=77-	=77-	=77-
*M2/1	*	*M2/1	*	*M	*
*met(C|)	*	*met(C|)	*	*	*
2FF/	eſt	1A	eſt	0c_	.
2F\	qui	.	.	.	.
2E\	po-	2rF	.	.	.
2F\	-tens	2A/	qui	.	.
=78-	=78-	=78-	=78-	=78-	=78-
2C/	eſt	2G/	po-	0c_	.
2FF/	.	2F/	-tens	.	.
2.C/	qui	2G/	eſt	.	.
.	.	2E/	qui	.	.
4BB-X/	po-	.	.	.	.
=79-	=79-	=79-	=79-	=79-	=79-
*	*	*lig	*	*	*
2AA/	.	1A	po-	0c_	.
2FF/	.	.	.	.	.
1C.	.	1G.	.	.	.
*	*	*Xlig	*	*	*
=80-	=80-	=80-	=80-	=80-	=80-
.	.	.	.	0c]	.
2C/	-tens	2G/	-tens	.	.
1FFl;;	eſt.	1Al;;	eſt.	.	.
==	==	==	==	==	==
*-	*-	*-	*-	*-	*-
!!!system-decoration: [g1]
!!!RDF**kern: > = above
!!!RDF**kern: < = below
!!!RDF**kern: l = terminal long
!!!ENC: Andrzej Kubiczek
!!!END: 2021-03-24
!!!ENC: Kamil Watkowski
!!!END: 2021-03-09
